walmart.svg

<svg viewBox="0 0 24 24" xmlns="http://www.w3.org/2000/svg"><path d="M11.9993 8.07739C12.5584 8.07739 13.0216 7.78578 13.0863 7.40564L13.6399 1.12936C13.6399 0.509298 12.9128 1.11022e-15 12.0011 1.11022e-15C11.0877 1.11022e-15 10.3624 0.509333 10.3624 1.12936L10.916 7.40564C10.9769 7.78578 11.4438 8.07739 12.003 8.07739L11.9993 8.07739ZM8.60042 10.0338C8.88092 9.54843 8.8588 9.00032 8.56353 8.76039L3.4019 5.13972C2.86673 4.8297 2.0603 5.20247 1.60631 5.99418C1.1468 6.78586 1.228 7.66984 1.76316 7.97982L7.47661 10.6409C7.83277 10.7738 8.32183 10.5154 8.60229 10.0319L8.60042 10.0338ZM15.3982 10.0338C15.6805 10.5191 16.1659 10.7756 16.522 10.6428L22.2373 7.98166C22.7743 7.67164 22.8519 6.78765 22.3923 5.99601C21.9383 5.20617 21.1338 4.83161 20.5949 5.14346L15.4369 8.76233C15.1417 9.00222 15.1214 9.55217 15.4 10.0357L15.3982 10.0338ZM11.9993 15.9207C12.5584 15.9207 13.0216 16.2123 13.0863 16.5925L13.6399 22.8687C13.6399 23.4888 12.9128 24 12.0011 24C11.0877 24 10.3624 23.4888 10.3624 22.8687L10.916 16.5925C10.9769 16.2123 11.4438 15.9207 12.003 15.9207L11.9993 15.9207ZM15.3982 13.9645C15.6805 13.4792 16.1659 13.2226 16.522 13.3555L22.2373 16.0148C22.7743 16.3266 22.8519 17.2088 22.3923 18.0023C21.9383 18.7903 21.1338 19.1687 20.5949 18.8586L15.4369 15.2379C15.1417 14.9943 15.1214 14.4462 15.4 13.9627L15.3982 13.9645ZM8.60042 13.9645C8.88092 14.4498 8.8588 14.9961 8.56353 15.2415L3.4019 18.8567C2.86673 19.1686 2.0603 18.794 1.60631 18.0042C1.1468 17.2125 1.228 16.3285 1.76316 16.0166L7.47661 13.3592C7.83277 13.2226 8.32183 13.4791 8.60229 13.9663L8.60042 13.9645Z" fill="#fab41d"/></svg>

<svg viewBox="0 0 24 24" xmlns="http://www.w3.org/2000/svg"><path d="M12 8.077c.558 0 1.022-.291 1.086-.671l.554-6.277C13.64.51 12.913 0 12 0c-.913 0-1.639.51-1.639 1.13l.554 6.276c.06.38.528.671 1.087.671h-.004Zm-3.4 1.957C8.88 9.548 8.86 9 8.564 8.76L3.402 5.14c-.535-.31-1.342.062-1.796.854-.46.792-.378 1.676.157 1.986l5.714 2.66c.356.134.845-.125 1.125-.608l-.002.002Zm6.798 0c.283.485.768.742 1.124.609l5.715-2.661c.537-.31.615-1.194.155-1.986-.454-.79-1.258-1.164-1.797-.853l-5.158 3.62c-.295.24-.316.79-.037 1.273l-.002-.002ZM12 15.92c.56 0 1.023.291 1.087.672l.554 6.276c0 .62-.727 1.131-1.639 1.131-.913 0-1.639-.511-1.639-1.131l.554-6.276c.06-.38.528-.672 1.087-.672h-.004Zm3.4-1.957c.282-.485.767-.741 1.123-.609l5.715 2.66c.537.312.615 1.194.155 1.987-.454.788-1.258 1.167-1.797.857l-5.158-3.621c-.295-.244-.316-.792-.037-1.275l-.002.002Zm-6.799 0c.28.486.259 1.032-.036 1.277l-5.162 3.616c-.535.312-1.342-.063-1.796-.853-.46-.792-.378-1.676.157-1.987l5.714-2.658c.356-.136.845.12 1.125.607l-.002-.002Z" fill="#fab41d"/></svg>
